Sources/FrostedUI/Resources/Icons.xcassets/shop16.imageset/shop-16.svg

<svg width="17" height="16" viewBox="0 0 17 16" fill="none" xmlns="http://www.w3.org/2000/svg" data-fui-icon="true">
  <path
    d="M12.3408 1C13.702 1.00012 14.9295 1.81925 15.4521 3.07617L15.7715 3.84375C15.9237 4.2098 16.0022 4.60259 16.002 4.99902L15.9971 5.15332C15.9547 5.97795 15.5778 6.71222 15.002 7.22949V12.6758C15.0019 14.5117 13.5136 16 11.6777 16H4.32617C2.4903 15.9999 1.00198 14.5117 1.00195 12.6758V7.23145C0.424833 6.71408 0.0472854 5.97901 0.00488281 5.15332L0 4.99902C-0.000273085 4.60259 0.0782671 4.2098 0.230469 3.84375L0.549805 3.07617C1.07246 1.81932 2.29995 1.00012 3.66113 1H12.3408ZM5.56348 6.83789C4.98484 7.55209 4.10317 7.99987 3.13086 8H3.00391L2.84863 7.99609C2.73112 7.99012 2.61552 7.97418 2.50195 7.95508V12.6758C2.50198 13.6832 3.31873 14.4999 4.32617 14.5H5.00195V11.25C5.00195 10.5597 5.56163 10 6.25195 10H9.75195C10.4423 10 11.002 10.5596 11.002 11.25V14.5H11.6777C12.6852 14.5 13.5019 13.6833 13.502 12.6758V7.95508C13.3877 7.97439 13.2716 7.99008 13.1533 7.99609L12.998 8H12.8711C11.8988 7.99998 11.0162 7.55298 10.4375 6.83887C9.86649 7.54154 8.99638 8 8.00195 8C7.00663 7.99998 6.13457 7.54167 5.56348 6.83789ZM6.50195 14.5H9.50195V11.5H6.50195V14.5ZM6.3877 4.57227C6.20838 5.57717 6.98115 6.49995 8.00195 6.5C9.02279 6.5 9.79554 5.5772 9.61621 4.57227L9.24609 2.5H6.75781L6.3877 4.57227ZM3.66113 2.5C2.90591 2.50012 2.22458 2.95502 1.93457 3.65234L1.61523 4.41992C1.53913 4.60306 1.49986 4.79972 1.5 4.99805C1.50066 5.82774 2.1742 6.5 3.00391 6.5H3.13086C3.92063 6.4998 4.59728 5.93368 4.73633 5.15625L5.21094 2.5H3.66113ZM11.2656 5.15625C11.4047 5.93379 12.0812 6.49996 12.8711 6.5H12.998C13.8278 6.5 14.5013 5.82774 14.502 4.99805C14.5021 4.79972 14.4628 4.60306 14.3867 4.41992L14.0674 3.65234C13.7774 2.95495 13.0961 2.50012 12.3408 2.5H10.791L11.2656 5.15625Z"
    fill="currentColor"
  />
</svg>

<svg xmlns="http://www.w3.org/2000/svg" width="17" height="16" fill="none" data-fui-icon="true" viewBox="0 0 17 16"><path fill="currentColor" d="M12.34 1a3.37 3.37 0 0 1 3.112 2.076l.32.768c.152.366.23.759.23 1.155l-.005.154a3 3 0 0 1-.995 2.076v5.447A3.324 3.324 0 0 1 11.678 16H4.326a3.324 3.324 0 0 1-3.324-3.324V7.23a3 3 0 0 1-.997-2.078L0 5c0-.396.078-.79.23-1.155l.32-.768A3.37 3.37 0 0 1 3.66 1zM5.564 6.838A3.13 3.13 0 0 1 3.131 8h-.127l-.155-.004a3 3 0 0 1-.347-.04v4.72c0 1.007.817 1.824 1.824 1.824h.676v-3.25c0-.69.56-1.25 1.25-1.25h3.5c.69 0 1.25.56 1.25 1.25v3.25h.676a1.824 1.824 0 0 0 1.824-1.824v-4.72q-.17.029-.349.04L12.998 8h-.127a3.13 3.13 0 0 1-2.434-1.161A3.12 3.12 0 0 1 8.002 8a3.13 3.13 0 0 1-2.439-1.162m.939 7.662h3v-3h-3zm-.114-9.928a1.64 1.64 0 1 0 3.228 0L9.246 2.5H6.758zM3.66 2.5a1.87 1.87 0 0 0-1.726 1.152l-.32.768A1.505 1.505 0 0 0 3.004 6.5h.127c.79 0 1.466-.566 1.605-1.344L5.211 2.5zm7.605 2.656c.139.778.815 1.344 1.605 1.344h.127a1.504 1.504 0 0 0 1.389-2.08l-.32-.768A1.87 1.87 0 0 0 12.341 2.5h-1.55z"/></svg>
